X: 11082
Q: "Jig time."
M: 6/8
L: 1/8
K: A
|:\
Ecc EBB | Ecc BAB | Ecc EBB | A>BA AFE |\
Ecc EBB | Ecc Bce | fga eca | A>BA AFE :|
|:\


